X: 41247
T: Trumpet, The
R: hornpipe
M: 4/4
K: Gmajor
|:G/G/G G2 G/G/G G2|BGBd gdBG|D/D/D D2 D/D/D D2|FDFA cAFA|
G/G/G G2 G/G/G G2|BGBd g2 g2|fagf egfe|1 defe dcBA:|2 defe dcBc||
|:d/d/d d2 d/d/d d2|efgf edcB|cded cBAG|FGAG FDEF|
G/G/GG2 B/B/B B2|d/d/d d2 g/g/g g2|agfe dcBA|1 G2B2 G2Bc:|2 G2B2 G2 D2||
G/G/GG2 =F/F/FF2|E/E/EE2 _E/E/EE2|DEFE DCB,A,|G,2 B,2 G,4||

